X: 21001
Q: "Plaintive and slow."
M: 3/4
L: 1/8
K: D
(BA)(GF)(E>D) | D2 A,2 D>E | F2 F2 E>D | D4 :|\
d2 d>e f>e | {e}d2 A2 A>B | (dA)(GF)(ED) | {D2}E4 F>A |
d2 (d>e)f>e | {e}d2 A2 f>g | a>b f2 (e>d) | d4 d>e |\
f2 f>fe>f | {g}a2 a2 f>a | (ba)(gf)(e>d) | {d2}He4 f>e |\
(dA)(GF)(ED) | A2 A,2 D>E | F2 F2 E>D | D4 |]


